X:1
T:The Field of Bannockburn
M:4/4
L:1/4
K:Ab
 C| F3/2 F/2 F G| A3/2 B/2 c =d| e3/2 c/2 B G| E3/2 F/2 G3/2 E/2| C3/2 F/2 F G|\
 A3/2 B/2 c f| e3/2 c/2 B G| F/2 F3/2 F f| f3/2 F/2 A c| f3/2 g/2 a3/2 f/2|\
 e3/2 c/2 B e| E3/2 F/2 G3/2 f/2| f3/2 c/2 c A| B3/2 c/2 e f| e3/2 c/2 B G|\
 F/2 F3/2 F||
